X: 4309
T: VIRGINIA HORNPIPE
R: Hornpipe
%R: hornpipe, reel
B: James Kerr "Merry Melodies" v.4 p.32 #309
Z: 2016 John Chambers <jc:trillian.mit.edu>
M: C
L: 1/8
K: Bb
|:\
(FB)BB (Ac)cc | BABd f2f2 |\
[1 edec dcdB | cBAG F2F2 :|\
[2 edcB Acfe | d2B2 B2z2 |:\
(bf)ff (fd)dd |
(ge)ee (ec)cc |\
(fd)dd (dB)BB | A2F2 F2B2 |\
(gB)BB (fB)BB | (gB)BB (fB)BB |\
edcB Acfe | d2B2 B2z2 :|

%%sep 1 1 500
%%sep 1 1 500

